X:1
T:ALLEGRETTO
T:ALLEGRETTO
T:Diabelli
C:Diabelli
%%score 1 2 3 { 4 | 5 }
L:1/8
M:2/4
K:G
V:1 treble nm="Oboe" snm="Ob."
V:2 treble nm="Violino" snm="Vln."
V:3 bass nm="Violoncello" snm="Vc."
V:4 treble nm="Piano" snm="Pf."
V:5 bass 
V:1
 G2 G2 | G2 F2 | G2 G2 | ^G2 A2 | B2 B2 | AB cA | G2 F2 | G2 z2 :| A2 A2 | B2 G2 | F2 F2 | G2 D2 | %12
 A2 A2 | B2 G2 | E2 E2 | D2 z2 | G2 G2 | G2 F2 | G2 G2 | ^G2 B2 | B2 AB | cA G2 | F2 G2 | G2 z2 :| %24
V:2
 D2 D2 | D4 | D2 D2 | D4 | D2 D2 | E4 | D2 D2 | G,2 z2 :| F2 F2 | [DG]4 | A2 A2 | B4 | F2 F2 | D4 | %14
 G,2 G,2 | D2 z2 | D2 D2 | D4 | D2 D2 | D4 | D2 D2 | E4 | D2 D2 | G,2 z2 :| %24
V:3
 G,,2 G,,2 | A,,4 | G,,2 G,,2 | D,4 | G,,2 G,,2 | C,,4 | D,,2 D,,2 | G,,2 z2 :| D,2 D,2 | D,4 | %10
 D,2 D,2 | D,4 | D,2 D,2 | D,4 | D,2 D,2 | D,2 z2 | G,,2 G,,2 | A,,4 | G,,2 G,,2 | D,4 | %20
 G,,2 G,,2 | C,,4 | D,,2 D,,2 | G,,2 z2 :| %24
V:4
 G2 G2 | G2 F2 | G2 G2 | ^G2 A2 | B2 B2 | AB cA | G2 F2 | G2 z2 :| A2 A2 | B2 G2 | F2 F2 | G2 D2 | %12
 A2 A2 | B2 G2 | E2 E2 | D2 z2 | G2 G2 | G2 F2 | G2 G2 | ^G2 B2 | B2 AB | cA G2 | F2 G2 | G2 z2 :| %24
V:5
 G,,2 G,,2 | A,,4 | G,,2 G,,2 | D,4 | G,,2 G,,2 | C,,4 | D,,2 D,,2 | G,,2 z2 :| D,2 D,2 | D,4 | %10
 D,2 D,2 | D,4 | D,2 D,2 | D,4 | D,2 D,2 | D,2 z2 | G,,2 G,,2 | A,,4 | G,,2 G,,2 | D,4 | %20
 G,,2 G,,2 | C,,4 | D,,2 D,,2 | G,,2 z2 :| %24

